X:1
T: Hartigan's Fancy
C:
R:Jig
Q:180
K:G
M:6/8
L:1/16
D2|B4B2 G2B2d2|c2B2c2 A2B2c2|B4B2 G2B2d2|c2A2G2 F2G2A2|B4B2 G2B2d2|c2B2c2 A2B2c2|def2d2 c2A2F2|A2G2G2 G4D2|
B4B2 G2B2d2|c2B2c2 A2B2c2|B4B2 G2B2d2|c2A2G2 F2G2A2|B4B2 G2B2d2|c2B2c2 A2B2c2|def2d2 c2A2F2|A2G2G2 G4d2|
f4f2 f2e2d2|c2A2G2 F2G2A2|g4g2 g2f2g2|a2f2d2 d4fg|f2a2g2 f2e2d2|c2A2G2 F2G2A2|Bcd2B2 c2A2F2|A2G2G2 G4d2|
f4f2 f2e2d2|c2A2G2 F2G2A2|g4g2 g2f2g2|a2f2d2 d4fg|f2a2g2 f2e2d2|c2A2G2 F2G2A2|Bcd2B2 c2A2F2|A2G2G2 G4||
